src/blocks/_pro/icon/icon.svg

<svg width="24" height="24" viewBox="0 0 24 24" fill="none" xmlns="http://www.w3.org/2000/svg">
<path d="M10.9 14.8H7.60002C7.5735 14.8 7.54807 14.8105 7.52931 14.8293C7.51056 14.848 7.50002 14.8735 7.50002 14.9L7.30002 15.6C7.30002 15.7 7.30002 15.8 7.40002 15.8H8.70002C8.80002 15.8 8.80002 15.9 8.80002 16L6.80002 18.2L7.80002 21.6C7.80002 21.7 7.80002 21.7 7.70002 21.7H6.70002C6.60002 21.7 6.60002 21.7 6.60002 21.6L6.00002 19.8C6.00002 19.7 5.80002 19.7 5.80002 19.8L5.40002 21V21.1L5.80002 22.6L5.90002 22.7H9.20002C9.22655 22.7 9.25198 22.6895 9.27074 22.6707C9.28949 22.6519 9.30002 22.6265 9.30002 22.6L8.00002 18.3V18.2L11 15C11 14.9 11 14.8 10.9 14.8Z" fill="black"/>
<path d="M7 13H5C4.97348 13 4.94804 13.0105 4.92929 13.0293C4.91054 13.048 4.9 13.0735 4.9 13.1L4.6 13.8C4.6 13.9 4.6 14 4.7 14H5.5C5.6 14 5.6 14.1 5.6 14.2L3.2 20.9C3.2 21 3 21 3 20.9L1.4 16C1.4 15.9 1.4 15.8 1.5 15.8H2.4C2.42652 15.8 2.45196 15.8105 2.47071 15.8293C2.48946 15.848 2.5 15.8735 2.5 15.9L3.1 17.6C3.1 17.7 3.3 17.7 3.3 17.6L4.3 14.9C4.3 14.8 4.3 14.7 4.2 14.7H0.1C0.0429464 14.7519 0.00729159 14.8232 0 14.9L3.1 23.9C3.1 24 3.3 24 3.3 23.9L7.1 13.1C7.1 13.0735 7.08946 13.048 7.07071 13.0293C7.05196 13.0105 7.02652 13 7 13Z" fill="#D8141C"/>
<path d="M15.5 1.40793e-07C14.1168 -0.000251575 12.7546 0.33702 11.5313 0.982547C10.3081 1.62807 9.26084 2.56235 8.48048 3.70431C7.70013 4.84627 7.21023 6.16141 7.0533 7.53559C6.89637 8.90978 7.07716 10.3015 7.57996 11.59C7.90669 11.7261 8.18062 11.9642 8.36086 12.2688C8.54109 12.5734 8.61796 12.9281 8.57996 13.28H10.85C11.1687 13.2712 11.4829 13.3573 11.7527 13.5273C12.0225 13.6973 12.2358 13.9436 12.3654 14.235C12.495 14.5264 12.5352 14.8497 12.4808 15.1639C12.4264 15.4781 12.2799 15.7691 12.06 16L11.88 16.19C13.0325 16.7327 14.2922 17.0095 15.5661 16.9998C16.8399 16.99 18.0953 16.6941 19.2394 16.1339C20.3835 15.5737 21.3871 14.7634 22.1758 13.7631C22.9646 12.7628 23.5185 11.598 23.7964 10.3548C24.0744 9.11156 24.0694 7.82177 23.7818 6.58077C23.4941 5.33977 22.9312 4.17929 22.1347 3.18514C21.3382 2.19099 20.3283 1.38859 19.1799 0.837266C18.0315 0.285944 16.7739 -0.000196444 15.5 1.40793e-07V1.40793e-07ZM17.2 13.6H13.8V6.8H17.2V13.6ZM17.2 5.3H13.8V3.4H17.2V5.3Z" fill="#0B0C0C"/>
</svg>

<svg xmlns="http://www.w3.org/2000/svg" viewBox="0 0 24 23.97"><defs><style>.cls-1{fill:#d8141c;}.cls-2{fill:#0b0c0c;}</style></defs><g id="レイヤー_2" data-name="レイヤー 2"><g id="レイヤー_1-2" data-name="レイヤー 1"><path d="M10.9,14.8H7.6a.1.1,0,0,0-.1.1l-.2.7c0,.1,0,.2.1.2H8.7c.1,0,.1.1.1.2l-2,2.2h0l1,3.4c0,.1,0,.1-.1.1h-1c-.1,0-.1,0-.1-.1L6,19.8c0-.1-.2-.1-.2,0L5.4,21v.1l.4,1.5.1.1H9.2a.1.1,0,0,0,.1-.1L8,18.3v-.1L11,15C11,14.9,11,14.8,10.9,14.8Z"/><path class="cls-1" d="M7,13H5a.1.1,0,0,0-.1.1l-.3.7c0,.1,0,.2.1.2h.8c.1,0,.1.1.1.2L3.2,20.9c0,.1-.2.1-.2,0L1.4,16c0-.1,0-.2.1-.2h.9a.1.1,0,0,1,.1.1l.6,1.7c0,.1.2.1.2,0l1-2.7c0-.1,0-.2-.1-.2H.1a.31.31,0,0,0-.1.2l3.1,9c0,.1.2.1.2,0L7.1,13.1A.1.1,0,0,0,7,13Z"/><path class="cls-2" d="M15.5,0A8.5,8.5,0,0,0,7.58,11.59a1.64,1.64,0,0,1,1,1.69h2.27A1.61,1.61,0,0,1,12.06,16l-.18.19A8.5,8.5,0,1,0,15.5,0Zm1.7,13.6H13.8V6.8h3.4Zm0-8.3H13.8V3.4h3.4Z"/></g></g></svg>
